X:186
T: Muede kehrt ein Wandersmann zurueck
N: D1017
O: Europa, Mitteleuropa, Deutschland, Unter - Franken, Bamberg Stadt,
N: DVA-Signatur A 190 014
R: Liebes - Lied
M: 4/4
L: 1/8
K: G
DD | B3AGFGB | D6
DF | A3GFAed | B6
GA | Bdd4cB | AGE4
GF | EDGFGe2d | B6
GA | Bdd4cB | AGE4
GF | EDGFGe2d | B6

